packages/tokens/icons/thumbsDown/size24Px.svg

<svg viewBox="0 0 24 24" fill="none" xmlns="http://www.w3.org/2000/svg" width="1em" height="1em"><path d="M2.5 15C2.5 15.2761 2.72386 15.5 3 15.5H6C6.82843 15.5 7.5 14.8284 7.5 14L7.5 7C7.5 6.17157 6.82843 5.5 6 5.5H3C2.72386 5.5 2.5 5.72386 2.5 6L2.5 15Z" stroke="currentColor"/><circle cx="0.5" cy="0.5" r="0.25" transform="matrix(1 0 0 -1 5 8)" stroke="currentColor" stroke-width="0.5"/><path d="M16 5.49984L11.28 5.5002C11.0942 5.50021 10.9094 5.5261 10.7308 5.57712L7.5 6.5" stroke="currentColor"/><path d="M13.5 15.9995C13.2239 15.9995 13 15.7757 13 15.4995C13 15.2234 13.2239 14.9995 13.5 14.9995V15.9995ZM13.5 14.9995L20.25 14.9995V15.9995L13.5 15.9995V14.9995ZM20.25 13.4995L18.4 13.4995V12.4995H20.25V13.4995ZM21 14.2495C21 13.8353 20.6642 13.4995 20.25 13.4995V12.4995C21.2165 12.4995 22 13.283 22 14.2495H21ZM20.25 14.9995C20.6642 14.9995 21 14.6637 21 14.2495H22C22 15.216 21.2165 15.9995 20.25 15.9995V14.9995Z" fill="currentColor"/><path d="M17 12.9995H19.75C20.4404 12.9995 21 12.4399 21 11.7495V11.7495C21 11.0592 20.4404 10.4995 19.75 10.4995H16.5" stroke="currentColor" stroke-linecap="round"/><path d="M17 10.4995H19.25C19.9404 10.4995 20.5 9.93987 20.5 9.24951V9.24951C20.5 8.55916 19.9404 7.99951 19.25 7.99951H17" stroke="currentColor" stroke-linecap="round"/><path d="M16 7.99951L18.25 7.99951C18.9404 7.99951 19.5 7.43987 19.5 6.74951V6.74951C19.5 6.05916 18.9404 5.49951 18.25 5.49951H14.6667" stroke="currentColor" stroke-linecap="round"/><path d="M13.5 15.4994L14.0279 17.0835C14.3302 17.9905 14.2598 18.9803 13.8322 19.8354L13.783 19.9336C13.6096 20.2804 13.2551 20.4995 12.8673 20.4995V20.4995C12.3668 20.4994 11.9397 20.1376 11.8574 19.644L11.7159 18.7952C11.5736 17.9413 11.2517 17.1273 10.7715 16.4071L9.57976 14.6195C9.52991 14.5447 9.44599 14.4998 9.35612 14.4998L7.50001 14.4995" stroke="currentColor"/></svg>

<svg xmlns="http://www.w3.org/2000/svg" fill="none" viewBox="0 0 24 24" width="1em" height="1em"><path stroke="currentColor" d="M2.5 15a.5.5 0 0 0 .5.5h3A1.5 1.5 0 0 0 7.5 14V7A1.5 1.5 0 0 0 6 5.5H3a.5.5 0 0 0-.5.5v9Z"/><circle cx=".5" cy=".5" r=".25" stroke="currentColor" stroke-width=".5" transform="matrix(1 0 0 -1 5 8)"/><path stroke="currentColor" d="M16 5.5h-4.72a2 2 0 0 0-.55.077L7.5 6.5"/><path fill="currentColor" d="M13.5 16a.5.5 0 1 1 0-1v1Zm0-1h6.75v1H13.5v-1Zm6.75-1.5H18.4v-1h1.85v1Zm.75.75a.75.75 0 0 0-.75-.75v-1c.966 0 1.75.783 1.75 1.75h-1Zm-.75.75a.75.75 0 0 0 .75-.75h1A1.75 1.75 0 0 1 20.25 16v-1Z"/><path stroke="currentColor" stroke-linecap="round" d="M17 13h2.75c.69 0 1.25-.56 1.25-1.25v0c0-.69-.56-1.25-1.25-1.25H16.5m.5 0h2.25c.69 0 1.25-.56 1.25-1.25v0c0-.69-.56-1.25-1.25-1.25H17m-1 0h2.25c.69 0 1.25-.56 1.25-1.25v0c0-.69-.56-1.25-1.25-1.25h-3.583"/><path stroke="currentColor" d="m13.5 15.5.528 1.584a3.604 3.604 0 0 1-.196 2.751l-.049.099a1.024 1.024 0 0 1-1.926-.29l-.141-.849a6.118 6.118 0 0 0-.944-2.388L9.58 14.62a.269.269 0 0 0-.224-.12H7.5"/></svg>
